!!!ONB: MCCC : IFS0591_04 : Extracted Monophonic Melody
!!!COM: Schubert, Franz
!!!OPR: Piano Sonata in G major, Fantasie
!!!OMV: 4
!!!SCT: D.894 (published as Op.78)
!!!ODT: 1826///
**kern
*staff1
*clefG2
*k[]
*C:
*M2/2
8cc#
8ee
=2
2.dd
8cc
8b
=3
8a
8b
8cc
8dd
4cc
4a
=4
4b
4g
8d
8d
8d
8d
=5
4d
4e
4d
8gg
8cc#
=6
2.dd
8cc
8b
=7
8a
8b
8cc
8dd
4cc
4a
=8
4g
4d
8gg
8gg
8gg
8gg
=9
4gg
4ee
4dd
4d
=10
2.e
8f#
8g
=11
8f#
8g
8a
8b
4cc
4dd
=12
2.b
8cc
8dd
=13
8ee
8ff#
8gg
8aa
8.ee-
16ff#
4ee
=14
2dd[
8dd]
8g
8d
8g
=15
2.e
8f#
8g
=16
8f#
8g
8a
8b
4cc
4dd
=17
2.b
8cc
8dd
=18
8ee
8ff#
8gg
8aa
8bb
8ccc
8ddd
8eee
=19
2.ddd
8a
8b
=20
8cc
8dd
8ee
8ff#
8ee
8aa
8gg
8cc
=21
2.dd
8ccc
8bb
=22
4aa
8ee
8dd
4cc
8gg
8aa
=23
4bb
8dd
8cc
4b
8d
8g
=24
8e
8a
8d
8g
8e
8a
8f#
8cc
=25
2.b
8cc
8dd
=26
8ee
8ff#
8gg
8aa
8bb
8ccc
8ddd
8eee
=27
2.ddd
8a
8b
=28
8cc
8dd
8ee
8ff#
8ee
8aa
8gg
8cc
=29
2.dd
8ccc
8bb
=30
4aa
8ee
8dd
4cc
8gg
8aa
=31
4bb
8dd
8cc
4b
8d
8g
=32
8e
8a
8d
8g
8e
8a
8f#
8cc
=33
8g
8b
8a
8dd
8b
8dd
8dd
8gg
=34
8ee
8aa
8dd
8gg
8ee
8aa
8ff#
8ccc
=35
8gg
8bb
8aa
8ddd
8bb
8ddd
8ddd
8ggg
=36
8eee
8ccc
8ccc
8aa
8bb-
8ccc#
8bb
8ddd
=37
8bb
8gg
8gg
8dd
8cc#
8ee
8dd
8gg
=38
8ee
8cc
8cc
8a
8b-
8cc#
8b
8dd
=39
8b
8g
8g
8d
8a
8f#
8f#
8d
=40
8b
8g
8g
8d
8a
8f#
8f#
8d
=41
8b
8g
8g
8d
8b
8g#
8g#
8d
=42
8cc
8a
8a
8d
8cc#
8b-
8b-
8d
=43
2r
4r
8cc#
8ee
=44
2.dd
8cc
8b
=45
8a
8b
8cc
8dd
4cc
4a
=46
4b
4g
8gg
8gg
8gg
8gg
=47
4gg
4ee
4dd
8gg
8cc#
=48
2.dd
8cc
8b
=49
8a
8b
8cc
8dd
4cc
4a
=50
4g
4d
8a
8a
8a
8a
=51
4g
4d
8dd
8dd
8dd
8dd
=52
4dd
4gg
8a
8a
8a
8a
=53
4g
4d
8dd
8dd
8dd
8dd
=54
2dd[
8dd]
8ee
8ff#
8gg
=55
2.gg
4ff
=56
4dd
4b
8g
8a
8f
8g
=57
8e
8g
8f
8e
8f
8a
8g
8f
=58
8e
8g
8cc
8ee
8gg
8aa
8gg
8ee
=59
8ff
8gg
8ff
8ddd
8ee
8ff
8ee
8ccc
=60
8bb
8gg
8dd
8b
8g
8a
8f
8g
=61
8e
8g
8f
8e
8f
8a
8g
8f
=62
8e
8g
8cc
8ee
8gg
8aa
8gg
8ee
=63
8g
8b
8dd
8gg
8bb
8ccc
8bb
8aa
=64
8gg
8aa
8gg
8eee
8ff
8gg
8ff
8ddd
=65
8ee
8ff
8ee
8ccc
8bb
8aa
8ff
8dd
=66
8cc
8dd
8ee
8dd#
8ee
8ff
8ee
8dd#
=67
8ee
8ff
8ee
8ccc
8bb
8aa
8ff
8dd
=68
8cc
8dd
8cc
8eee
8ddd
8ccc
8aa
8ff#
=69
8gg
8aa
8gg
8ggg
8fff
8eee
8ddd
8eee
=70
4ccc
4gg
4ff
8aa
8aa
=71
4gg
4ccc
4bb
8ddd
8ddd
=72
4ccc
4gg
4ff
8gg#
8gg#
=73
4gg
4ccc
4bb
8ddd
8ddd
=74
4ccc
4cc
4cc
8bb-
8bb-
=75
4bb-
8g
8ee-
8g#
8ee-
8b-
8ee-
=76
4ee-
4cc
4cc
8bb-
8bb-
=77
4bb-
8g
8ee-
8g#
8ee-
8b-
8ee-
=78
4ee-
4ccc
4ccc
4ccc
=79
4ccc
4gg#
4gg#
4gg#
=80
4.gg#
8f
8c#
8G#
8F
8G#
=81
8G#
8B-
8G#
8g#
8f
8c#
8G#
8c#
=82
8c#
8e-
8c#
8cc#
8g#
8f
8c#
8cc#
=83
8cc#
8g#
8f
8ff
8ff
8cc#
8g#
8gg#
=84
4gg#
4gg#
4ccc#
4ccc
=85
4bb
4dd
4cc
8ee-
8ee-
=86
4dd
4gg
4ee-
8ccc
8ccc
=87
4bb
4ddd
4ccc
8eee-
8eee-
=88
4ddd
4ggg
4eee-
8cccc
8cccc
=89
8bbb
8ggg
8fff#
8aaa
8ggg
8fff
8eee
8ggg
=90
8fff
8eee
8ddd
8eee-
8eee
8ddd
8ccc#
8eee
=91
8ddd
8ccc
8bb
8ddd
8ccc
8bb
8aa
8ccc
=92
8bb
8aa
8gg
8gg#
8aa
8gg
8ff#
8aa
=93
8gg
8ff
8ee
8gg
8ff
8ee
8dd
8ff
=94
8ee
8dd
8cc#
8ee
8dd
8cc
8b
8dd
=95
8cc
8b
8a
8cc
8b
8a
8g
8b
=96
8a
8g
8f#
8a
8g
8a
8f
8g
=97
8e
8g
8f
8e
8f
8a
8g
8f
=98
8e
8g
8cc
8ee
8gg
8aa
8gg
8ee
=99
8ff
8gg
8ff
8ddd
8ee
8ff
8ee
8ccc
=100
8bb
8gg
8dd
8b
8g
8a
8f
8g
=101
8e
8g
8f
8e
8f
8a
8g
8f
=102
8e
8g
8cc
8ee
8gg
8aa
8gg
8ee
=103
8g
8b
8dd
8gg
8bb
8ccc
8bb
8aa
=104
8gg
8aa
8gg
8ggg
8ff
8gg
8ff
8fff
=105
8ee
8ff
8ee
8eee
8bb
8aa
8ff
8dd
=106
8cc
8dd
8ee
8ff
8ee
8ff
8ee
8dd#
=107
8ee
8ff
8ee
8ccc
8bb
8aa
8ff
8dd
=108
8cc
8dd
8cc
8eee
8ddd
8ccc
8aa
8ff#
=109
8gg
8aa
8gg
8ggg
8fff
8eee
8ddd
8eee
=110
4ccc
4gg
4ff
8aa
8aa
=111
4gg
4ccc
4bb
8ddd
8ddd
=112
4ccc
4gg
4ff
8gg#
8gg#
=113
4gg
4ccc
4bb
8ddd
8ddd
=114
4ccc
4cc
4cc
8bb-
8bb-
=115
4bb-
8bb
8bb
4ccc
4ggg
=116
4ccc
4cc
4cc
8bb-
8bb-
=117
4bb-
8bb
8bb
4ccc
4ggg
=118
4ccc
4gg
4cc
8gg
8gg
=119
4cc
4gg
4cc
8gg
8gg
=120
4cc
4gg
4cc
4gg
=121
4cc
8ee
8ee
4ee
4ee
=122
1ee
=123
2dd
2r
=124
1r
=125
1bb
=126
2ccc
4aa
4ff#
=127
4gg
4bb
8d
8d
8d
8d
=128
4d
4e
2d
=129
1bb
=130
2ccc
4aa
4ff#
=131
4gg
4bb
8gg
8gg
8gg
8gg
=132
4gg
4ee
4dd
4d
=133
2.e
8f#
8g
=134
8f#
8g
8a
8b
4cc
4dd
=135
2.b
8cc
8dd
=136
8ee
8ff#
8gg
8aa
8.ee-
16ff#
4ee
=137
2.dd
8d
8g
=138
2e[
8e]
8ee
8cc
8a
=139
8f#
8g
8a
8b
4cc
4dd
=140
2.b
8cc
8dd
=141
8ee
8ff#
8gg
8aa
8bb
8ccc
8ddd
8eee
=142
2.ddd
8a
8b
=143
8cc
8dd
8ee
8ff#
8ee
8aa
8gg
8cc
=144
2.dd
8ccc
8bb
=145
4aa
8ee
8dd
4cc
8gg
8aa
=146
4bb
8dd
8cc
4b
8d
8g
=147
8e
8a
8d
8g
8e
8a
8f#
8cc
=148
2.b
8cc
8dd
=149
8ee
8ff#
8gg
8aa
8bb
8ccc
8ddd
8eee
=150
2.ddd
8a
8b
=151
8cc
8dd
8ee
8ff#
8ee
8aa
8gg
8cc
=152
2.dd
8ccc
8bb
=153
4aa
8ee
8dd
4cc
8gg
8aa
=154
4bb
8dd
8cc
4b
8d
8g
=155
8e
8a
8d
8g
8e
8a
8f#
8cc
=156
8g
8b
8a
8dd
8b
8dd
8b-
8ee-
=157
8cc
8ff
8b-
8ee-
8cc
8ff
8dd
8gg#
=158
8ee-
8gg
8ff
8bb-
8gg
8bb-
8ff#
8bb
=159
8gg#
8ccc#
8ff#
8bb
8gg#
8ccc#
8bb-
8eee
=160
8bb
8eee-
8ccc#
8fff#
8eee-
8fff#
8ddd
8ggg
=161
8eee
8ccc
8ccc
8aa
8bb-
8ccc#
8bb
8ddd
=162
8bb
8gg
8gg
8dd
8cc#
8ee
8dd
8gg
=163
8ee
8cc
8cc
8a
8b-
8cc#
8b
8dd
=164
8b
8g
8g
8d
8a
8f#
8f#
8d
=165
8b
8g
8g
8d
8a
8f#
8f#
8d
=166
8b
8g
8g
8d
8b
8g#
8g#
8d
=167
8cc
8a
8a
8d
8cc#
8b-
8b-
8d
=168
2r
4r
8cc#
8ee
=169
2.dd
8cc
8b
=170
8a
8b
8cc
8dd
4cc
4a
=171
4b
4g
8aa
8aa
8aa
8aa
=172
4gg
4ee
4dd
8gg
8cc#
=173
2.dd
8cc
8b
=174
8a
8b
8cc
8dd
4cc
4a
=175
4g
4d
8a
8a
8a
8a
=176
4g
4d
8dd
8dd
8dd
8dd
=177
4dd
4gg
8a
8a
8a
8a
=178
4g
4d
8dd
8dd
8dd
8dd
=179
2dd[
8dd]
8ee
8ff#
8gg
=180
1gg[
=181
4gg]
4gg#
4aa
4bb-
=182
8bb-
8gg
8ee-
8b-
8b-
8cc
8a
8cc
=183
8b-
8g
8b-
8ee-
8gg
8ee-
8b-
8g
=184
4b-
8b-
8b-
4cc
4b-
=185
8b-
8ee-
8dd
8cc
8b-
8b-
8ee-
8gg
=186
8bb-
8gg
8ee-
8b-
8b-
8cc
8a
8cc
=187
8b-
8g
8b-
8ee-
8gg
8ee-
8b-
8g
=188
4ff
8ff
8ff
4gg
4ff
=189
4ff
8ff
8ff
4ddd
4ff
=190
4gg
8gg
8gg
4gg#
4gg
=191
4gg
8gg
8gg
4eee-
8.gg
48aa
48ccc
48eee-
=192
8ggg
8fff
8eee-
8ddd
8ccc
8bb-
8aa
8gg
=193
8ff
8ee
8ff
8ee
8ff
8ee
8ff
16gg
64gg
64gg
32gg#
=194
8ccc
8bb-
8gg#
8gg
8ff
8ee-
8dd
8cc
=195
8b-
8cc
8dd
8ee-
8ff
8gg
8gg#
8aa
=196
8bb-
8gg
8ee-
8b-
8b-
8cc
8a
8cc
=197
8b-
8g
8b-
8ee-
8gg
8ee-
8b-
8g
=198
4b-
8b-
8b-
4cc
4b-
=199
8b-
8ee-
8dd
8cc
8b-
8b-
8ee-
8gg
=200
8bb-
8gg
8ee-
8b-
8b-
8cc
8a
8cc
=201
8b-
8g
8b-
8ee-
8gg
8ee-
8b-
8g
=202
8g
8e-
8g
8cc
8ee-
8cc
8g
8e-
=203
8e-
8c
8e-
8g#
8cc
8g#
8e-
8c
=204
8e-
8ee-
8ee-
8e-
8f#
8ff#
8ff#
8f#
=205
8cc
8ccc
8ccc
8cc
8ee-
8eee-
8eee-
8ee-
=206
8r
8bb-
8eee-
8ggg
8bbb-
8ggg#
8eee-
8ccc
=207
8r
8g
8b-
8ee-
8gg
8ff
8dd
8b-
=208
8e-
8ee-
8ee-
8e-
8f#
8ff#
8ff#
8f#
=209
8cc
8ccc
8ccc
8cc
8ee-
8eee-
8eee-
8ee-
=210
8gg
8ggg
8ggg
8gg
8gg
8ggg
8ggg
8gg
=211
8b
8bb
8bb
8b
8b
8bb
8bb
8b
=212
2ccc
2r
=213
1r
=214
2.ee-
4ee-
=215
2ee-
4dd
4dd
=216
2dd
4cc
4cc
=217
2.g
4g
=218
2.cc
4cc
=219
2cc#
16r
16ee-
16ff
16gg
20gg#
20gg
20ff
20ee-
20cc#
=220
2cc
4.ee-
8dd
=221
2.cc
4g
=222
2.ee-
4ee-
=223
2ee-
4dd
4dd
=224
2dd
4cc
4cc
=225
2.g
4g
=226
2.cc
4cc
=227
2cc#
20r
20ee-
20ff
20gg
20gg#
24bb-
24gg#
24gg
24ff
24ee-
24cc#
=228
2cc
4.ee-
8dd
=229
1cc
=230
8r
8g
8cc
8ee-
8gg
8ggg
8gg
8ggg
=231
8r
8a
8dd
8ff#
8aa
8aaa
8aa
8aaa
=232
8r
8cc
8ee-
8gg
8ccc
8cccc
8ccc
16.cccc
96dd
96gg
96bb
=233
8dddd
8bbb
8ggg
8ddd
8ddd
8bb
8gg
8dd
=234
8r
8f
8b-
8cc#
8ff
8fff
8ff
8fff
=235
8r
8g
8cc
8ee
8gg
8ggg
8gg
8ggg
=236
8r
8b-
8cc#
8ff
8bb-
8bbb-
8bb-
16.bbb-
96cc
96ff
96aa
=237
8cccc
8aaa
8fff
8ccc
8ccc
8aa
8ff
8cc
=238
8r
8d
8f
8g#
8dd
8ddd
8dd
8ddd
=239
8r
8d
8f
8g
8dd
8ddd
8dd
8ddd
=240
8ee-
8eee-
8eee-
8ee-
8dd
8ddd
8ddd
8dd
=241
8cc
8ccc
8ccc
8cc
8b
8bb
8bb
8b
=242
8r
8d
8f
8g#
8dd
8ddd
8dd
8ddd
=243
8r
8d
8f
8g
8dd
8ddd
8dd
8ddd
=244
8ee-
8eee-
8eee-
8ee-
8dd
8ddd
8ddd
8dd
=245
8g
8gg
8gg
8g
8g
8gg
8gg
8g
=246
2.ee
4ee
=247
2ee
4dd
4dd
=248
2dd
4cc
4cc
=249
2.g
4g
=250
2.cc
4cc
=251
2cc
4dd
4ee
=252
2cc
2b
=253
2.cc
4g
=254
2.ee
4ee
=255
2ee
4dd
4dd
=256
4.dd
8cc
12b
12cc
12dd
12cc
12b
12a
=257
2.g
4g
=258
2.cc
4cc
=259
2cc
4dd
4ee
=260
2cc
2b
=261
1cc
=262
8r
8e
8a
8cc
8ee
8eee
8ee
8eee
=263
8r
8f#
8b
8ee-
8ff#
8fff#
8ff#
8fff#
=264
8r
8a
8cc
8ee
8aa
8aaa
8aa
16.aaa
96b
96ee
96gg#
=265
8bbb
8ggg#
8eee
8bb
8bb
8gg#
8ee
8b
=266
8r
8d
8g
8b-
8dd
8ddd
8dd
8ddd
=267
8r
8e
8a
8cc#
8ee
8eee
8ee
8eee
=268
8r
8g
8b-
8dd
8gg
8ggg
8gg
16.ggg
96a
96dd
96ff#
=269
8aaa
8fff#
8ddd
8aa
8aa
8ff#
8dd
8a
=270
8r
8d
8f
8g#
8dd
8ddd
8dd
8ddd
=271
8r
8d
8f
8g
8dd
8ddd
8dd
8ddd
=272
8ee-
8eee-
8eee-
8ee-
8dd
8ddd
8ddd
8dd
=273
8cc
8ccc
8ccc
8cc
8b
8bb
8bb
8b
=274
8r
8d
8f
8g#
8dd
8ddd
8dd
8ddd
=275
8r
8d
8f
8g
8dd
8ddd
8dd
8ddd
=276
8ee-
8eee-
8eee-
8ee-
8cc
8ccc
8ccc
8cc
=277
8b-
8bb-
8bb-
8b-
8b-
8bb-
8bb-
16.b-
96dd
96ff
96gg#
=278
8ccc
8bb-
8gg#
8gg
8ff
8ee-
8dd
8cc
=279
8b-
8cc
8dd
8ee-
8ff
8gg
8gg#
8aa
=280
8bb-
8gg
8ee-
8b-
8b-
8cc
8a
8cc
=281
8b-
8g
8b-
8ee-
8gg
8ee-
8b-
8g
=282
4b-
8b-
8b-
4cc
4b-
=283
8b-
8ee-
8dd
8cc
8b-
8b-
8ee-
8gg
=284
8bb-
8gg
8ee-
8b-
8b-
8cc
8a
8cc
=285
8b-
8g
8b-
8ee-
8gg
8ee-
8b-
8g
=286
4ff
8ff
8ff
4gg
4ff
=287
4ff
8ff
8ff
4ddd
4ff
=288
4gg
8gg
8gg
4gg#
4gg
=289
4gg
8gg
8gg
4eee-
8.gg
48aa
48ccc
48eee-
=290
8ggg
8fff
8eee-
8ddd
8ccc
8bb-
8aa
8gg
=291
8ff
8ee
8ff
8ee
8ff
8ee
8ff
16gg
64gg
64gg
32gg#
=292
8ccc
8bb-
8gg#
8gg
8ff
8ee-
8dd
8cc
=293
8b-
8cc
8dd
8ee-
8ff
8gg
8gg#
8aa
=294
8bb-
8gg
8ee-
8b-
8b-
8cc
8a
8cc
=295
8b-
8g
8b-
8ee-
8gg
8ee-
8b-
8g
=296
4b-
8b-
8b-
4cc
4b-
=297
8b-
8ee-
8dd
8cc
8b-
8b-
8ee-
8gg
=298
8bb-
8gg
8ee-
8b-
8b-
8cc
8a
8cc
=299
8b-
8g
8b-
8ee-
8gg
8ee-
8b-
8g
=300
8g
8e-
8g
8cc
8ee-
8cc
8g
8e-
=301
8e-
8c
8e-
8g#
8cc
8g#
8e-
8c
=302
8e-
8ee-
8ee-
8e-
8f#
8ff#
8ff#
8f#
=303
8cc
8ccc
8ccc
8cc
8ee-
8eee-
8eee-
8ee-
=304
8r
8bb-
8eee-
8ggg
8bbb-
8ggg#
8eee-
8ccc
=305
8r
8g
8b-
8ee-
8gg
8ff
8dd
8b-
=306
8e-
8ee-
8ee-
8e-
8f#
8ff#
8ff#
8f#
=307
8cc
8ccc
8ccc
8cc
8ee-
8eee-
8eee-
8ee-
=308
8g
8gg
8gg
8g
8cc
8ccc
8ccc
8cc
=309
8ee-
8eee-
8eee-
8ee-
8gg
8ggg
8ggg
8gg
=310
8aa
8aaa
8aaa
8aa
8dd
8ddd
8ddd
8dd
=311
8a
8aa
8aa
8a
8d
8dd
8dd
8d
=312
8d
8dd
8dd
8d
8d
8dd
8dd
8d
=313
8d
8dd
8dd
8d
8r
8f#
8a
8cc
=314
8ee
8cc
8a
8f#
8cc
8a
8f#
8d
=315
8f#
8d
8f#
8a
8cc
8f#
8a
8cc
=316
8ee
8cc
8a
8f#
8cc
8a
8f#
8d
=317
8f#
8d
8f#
8a
8cc
8f#
8a
8cc
=318
8ee
8cc
8a
8f#
8ee
8cc
8a
8f#
=319
8ee
8cc
8a
8f#
8ee
8cc
8a
8f#
=320
8ee
8cc
8ee
8cc
8ee
8cc
8ee
8cc
=321
8cc#
8ee
8cc#
8ee
8cc#
8ee
8cc#
8ee
=322
2.dd
8cc
8b
=323
8a
8b
8cc
8dd
4cc
4a
=324
4b
4g
8d
8d
8d
8d
=325
4d
4e
4d
8gg
8cc#
=326
2.dd
8cc
8b
=327
8a
8b
8cc
8dd
4cc
4a
=328
4g
4d
8gg
8gg
8gg
8gg
=329
4gg
4ee
4dd
4d
=330
2.e
8f#
8g
=331
8f#
8g
8a
8b
4cc
4dd
=332
2.b
8cc
8dd
=333
8ee
8ff#
8gg
8aa
8.ee-
16ff#
4ee
=334
2dd[
8dd]
8g
8d
8g
=335
2e[
8e]
8ee
8cc
8a
=336
8f#
8g
8a
8b
4cc
4dd
=337
2.b
8cc
8dd
=338
8ee
8ff#
8gg
8aa
8bb
8ccc
8ddd
8eee
=339
2.ddd
8a
8b
=340
8cc
8dd
8ee
8ff#
8ee
8aa
8gg
8cc
=341
2.dd
8ccc
8bb
=342
4aa
8ee
8dd
4cc
8gg
8aa
=343
4bb
8dd
8cc
4b
8d
8g
=344
8e
8a
8d
8g
8e
8a
8f#
8cc
=345
2.b
8cc
8dd
=346
8ee
8ff#
8gg
8aa
8bb
8ccc
8ddd
8eee
=347
2.ddd
8dd
8ee
=348
8ff
8gg
8aa
8bb
8aa
8ddd
8ccc
8ff
=349
2.gg
8fff
8eee
=350
4ddd
8aa
8gg
4ff
8ccc
8ddd
=351
4eee
8gg
8ff
4ee
8g
8cc
=352
8a
8dd
8g
8cc
8a
8dd
8b
8ff
=353
8cc
8ee
8dd
8gg
8ee
8gg
8dd
8gg
=354
8ee
8aa
8dd
8gg
8ee
8aa
8ff#
8ccc
=355
8gg
8bb
8aa
8ddd
8bb
8ddd
8ddd
8ggg
=356
8eee
8ccc
8ccc
8aa
8bb-
8ccc#
8bb
8ddd
=357
8bb
8gg
8gg
8dd
8cc#
8ee
8dd
8gg
=358
8ee
8cc
8cc
8a
8b-
8cc#
8b
8dd
=359
8b
8g
8g
8d
8a
8f#
8f#
8d
=360
8b
8g
8g
8d
8a
8f#
8f#
8d
=361
8b
8g
8g
8d
8b
8g#
8g#
8d
=362
8cc
8a
8a
8d
8cc#
8b-
8b-
8d
=363
2r
4r
8cc#
8ee
=364
2.dd
8cc
8b
=365
8a
8b
8cc
8dd
4cc
4a
=366
4b
4g
8d
8d
8d
8d
=367
4d
4e
4d
8ee
8gg
=368
2.ff
8ee-
8dd
=369
8cc
8dd
8ee-
8ff
4ee-
4cc
=370
4dd
4b-
4ee-
4f
=371
4dd
4f
4cc#
4f
=372
4dd
4f
4ff
4ee-
=373
4ee-
4dd
4dd
4cc#
=374
4cc#
4dd
4ee-
4dd
=375
4cc#
4dd
4ee
4dd
=376
4dd
8cc
8b
4a
8b
8a
=377
4g
4a[
8a]
8a
8a
8a
=378
4g
4d
4ee
8dd
8cc#
=379
4dd
4b
4aa
8bb
8aa
=380
4gg
4a[
8a]
8a
8a
8a
=381
4g
4d
4ee
8dd
8cc#
=382
4dd
4b
4aa
8bb
8aa
=383
4gg
8dd
8gg
8ee
8aa
8ff#
8ccc
=384
8gg
8bb
8dd
8gg
8ee
8aa
8ff#
8ccc
=385
8gg
8bb
8ff
8aa
8ee
8gg
8ee-
8ff#
=386
8ee
8gg
8cc
8ee
8b
8dd
8a
8cc
=387
8g
8b
8d
8g
8e
8a
8f#
8cc
=388
8g
8b
8d
8g
8e
8a
8f#
8cc
=389
8g
8b
8f
8a
8e
8g
8e-
8f#
=390
8e
8g
8c
8e
8B
8d
8A
8c
=391
8G
8B
8c
8e
8B
8d
8f#
8cc
=392
8g
8b
8cc
8ee
8b
8dd
8ff#
8ccc
=393
8gg
8bb
8ccc
8eee
8bb
8ddd
8fff#
8cccc
=394
8bbb
8ggg
8eee
8ccc
8bb
8gg
8ddd
8aa
=395
8bb
8gg
8ee
8cc
8b
8g
8dd
8a
=396
8b
8g
8e
8c
8B
8G
8d
8A
=397
8B
8G
8d
8A
8B
8G
8d
8A
=398
8B
8G
8d
8A
8B
8G
8d
8A
=399
8B
8G
8d
8A
8B
8G
8d
8A
=400
8B
8G
8d
8A
8B
8G
8d
8A
=401
8B
8G
8d
8A
8B
8G
8d
8A
=402
8B
8G
8d
8A
8B
8G
8d
8A
=403
8B
8G
8d
8A
8B
8G
8d
8A
=404
8B
8G
8B
8d
8g
8b
8dd
8gg
=405
8bb
8gg
8bb-
8ff#
8bb
8gg
8bb-
8ff#
=406
8bb
8gg
8bb-
8ff#
8bb
8gg
8bb-
8ff#
=407
8bb
8gg
8gg#
8bb
8aa
8ccc
8bb-
8ccc#
=408
8bb
8ddd
8bb-
8ccc#
8bb
8ddd
8ccc#
8eee
=409
2.ddd
8ccc
8bb
=410
8aa
8bb
8ccc
8ddd
4ccc
4aa
=411
2gg
8g
8g
8g
8g
=412
1g
==
*-
